X:2696
T:Humours of Castlefin
O:england
R:Reel
C:Lark camp 96 (Laurie)
M:C|
K:Em
"A"BEGE BEGB|ADED FGA2|BEE2 BFAF|GBAF E2FA|\
BEE2 BEGB|AD F/2E/2D FGAc|BEE2 BFAF|GBAF E3A||\
"B"B2ed efge|defg afed|B2ed efge|agfa geed|\
B2ed efge|defg afdf|efga bagf|e2fd e^cdc||\
"Alt. A"B~E3 B~E3|AD {F}ED FGAc|B~E3 BFAF|GBAF E2FA|\
B~E3 d~E3|AD {F}ED FGAc|B~E3 BFAF|GBAF ~E3A||
